Newaita/actions/24/tools-media-optical-burn-image.svg

<svg height="24" viewBox="0 0 24 24" width="24" xmlns="http://www.w3.org/2000/svg"><path d="m11.90625 2.171875c-5.496094 0-9.921875 4.425781-9.921875 9.921875 0 5.5 4.425781 9.925781 9.921875 9.925781v-1.988281c-4.398438 0-7.9375-3.539062-7.9375-7.9375s3.539062-7.9375 7.9375-7.9375 7.9375 3.539062 7.9375 7.9375h1.988281c0-5.496094-4.425781-9.921875-9.925781-9.921875zm0 0" fill="#424242"/><path d="m11.90625 9.117188c-1.648438 0-2.976562 1.328124-2.976562 2.976562s1.328124 2.976562 2.976562 2.976562v-.992187c-1.097656 0-1.984375-.882813-1.984375-1.984375 0-1.097656.886719-1.984375 1.984375-1.984375 1.101562 0 1.984375.886719 1.984375 1.984375h.992187c0-1.648438-1.328124-2.976562-2.976562-2.976562zm0 0" fill="#424242"/><path d="m11.90625 6.140625c-3.296875 0-5.953125 2.65625-5.953125 5.953125h.992187c0-2.746094 2.214844-4.960938 4.960938-4.960938zm0 0" fill="#f44336"/><path d="m14.882812 14.078125c-.546874 0-.992187.445313-.992187.992187v5.957032c0 .546875.445313.992187.992187.992187h5.957032c.546875 0 .992187-.445312.992187-.992187v-5.957032c0-.546874-.445312-.992187-.992187-.992187zm.496094.992187h4.960938c.277344 0 .5.222657.5.496094v4.964844c0 .273438-.222656.496094-.5.496094h-4.960938c-.273437 0-.496094-.222656-.496094-.496094v-4.964844c0-.273437.222657-.496094.496094-.496094zm0 0" fill="#424242"/></svg>

<svg xmlns="http://www.w3.org/2000/svg" xmlns:xlink="http://www.w3.org/1999/xlink" width="24px" height="24px" viewBox="0 0 24 24" version="1.1">
<g id="surface1">
     <defs>
  <style id="current-color-scheme" type="text/css">
   .ColorScheme-Text { color:#424242; } .ColorScheme-Highlight { color:#eeeeee; }
  </style>
 </defs>
<path style="fill:currentColor" class="ColorScheme-Text" d="M 11.90625 2.171875 C 6.410156 2.171875 1.984375 6.597656 1.984375 12.09375 C 1.984375 17.59375 6.410156 22.019531 11.90625 22.019531 L 11.90625 20.03125 C 7.507812 20.03125 3.96875 16.492188 3.96875 12.09375 C 3.96875 7.695312 7.507812 4.15625 11.90625 4.15625 C 16.304688 4.15625 19.84375 7.695312 19.84375 12.09375 L 21.832031 12.09375 C 21.832031 6.597656 17.40625 2.171875 11.90625 2.171875 Z M 11.90625 2.171875 "/>
     <defs>
  <style id="current-color-scheme" type="text/css">
   .ColorScheme-Text { color:#424242; } .ColorScheme-Highlight { color:#eeeeee; }
  </style>
 </defs>
<path style="fill:currentColor" class="ColorScheme-Text" d="M 11.90625 9.117188 C 10.257812 9.117188 8.929688 10.445312 8.929688 12.09375 C 8.929688 13.742188 10.257812 15.070312 11.90625 15.070312 L 11.90625 14.078125 C 10.808594 14.078125 9.921875 13.195312 9.921875 12.09375 C 9.921875 10.996094 10.808594 10.109375 11.90625 10.109375 C 13.007812 10.109375 13.890625 10.996094 13.890625 12.09375 L 14.882812 12.09375 C 14.882812 10.445312 13.554688 9.117188 11.90625 9.117188 Z M 11.90625 9.117188 "/>
<path style=" stroke:none;fill-rule:nonzero;fill:rgb(95.686275%,26.274511%,21.176471%);fill-opacity:1;" d="M 11.90625 6.140625 C 8.609375 6.140625 5.953125 8.796875 5.953125 12.09375 L 6.945312 12.09375 C 6.945312 9.347656 9.160156 7.132812 11.90625 7.132812 Z M 11.90625 6.140625 "/>
     <defs>
  <style id="current-color-scheme" type="text/css">
   .ColorScheme-Text { color:#424242; } .ColorScheme-Highlight { color:#eeeeee; }
  </style>
 </defs>
<path style="fill:currentColor" class="ColorScheme-Text" d="M 14.882812 14.078125 C 14.335938 14.078125 13.890625 14.523438 13.890625 15.070312 L 13.890625 21.027344 C 13.890625 21.574219 14.335938 22.019531 14.882812 22.019531 L 20.839844 22.019531 C 21.386719 22.019531 21.832031 21.574219 21.832031 21.027344 L 21.832031 15.070312 C 21.832031 14.523438 21.386719 14.078125 20.839844 14.078125 Z M 15.378906 15.070312 L 20.339844 15.070312 C 20.617188 15.070312 20.839844 15.292969 20.839844 15.566406 L 20.839844 20.53125 C 20.839844 20.804688 20.617188 21.027344 20.339844 21.027344 L 15.378906 21.027344 C 15.105469 21.027344 14.882812 20.804688 14.882812 20.53125 L 14.882812 15.566406 C 14.882812 15.292969 15.105469 15.070312 15.378906 15.070312 Z M 15.378906 15.070312 "/>
</g>
</svg>
